src/lib/packages/icons/src/assets/filled/folder-code.svg

<svg width="24" height="24" viewBox="0 0 24 24" fill="none" xmlns="http://www.w3.org/2000/svg">
<path d="M18 7H13L10 4H6C4 4 3 5 3 7V17C3 19 4 20 6 20H18C20 20 21 19 21 17V10C21 8 20 7 18 7ZM9.53003 15.47C9.82303 15.763 9.82303 16.238 9.53003 16.531C9.38403 16.677 9.192 16.751 9 16.751C8.808 16.751 8.61597 16.678 8.46997 16.531L6.46997 14.531C6.17697 14.238 6.17697 13.763 6.46997 13.47L8.46997 11.47C8.76297 11.177 9.23801 11.177 9.53101 11.47C9.82401 11.763 9.82401 12.238 9.53101 12.531L8.06104 14.001L9.53003 15.47ZM14.53 14.53L12.53 16.53C12.384 16.676 12.192 16.75 12 16.75C11.808 16.75 11.616 16.677 11.47 16.53C11.177 16.237 11.177 15.762 11.47 15.469L12.9399 13.999L11.47 12.529C11.177 12.236 11.177 11.761 11.47 11.468C11.763 11.175 12.238 11.175 12.531 11.468L14.531 13.468C14.823 13.762 14.823 14.238 14.53 14.53Z" fill="currentColor"/>
</svg>

<svg xmlns="http://www.w3.org/2000/svg" width="24" height="24" fill="none"><path fill="currentColor" d="M18 7h-5l-3-3H6C4 4 3 5 3 7v10c0 2 1 3 3 3h12c2 0 3-1 3-3v-7c0-2-1-3-3-3Zm-8.47 8.47a.75.75 0 0 1-1.06 1.061l-2-2a.75.75 0 0 1 0-1.061l2-2a.75.75 0 0 1 1.061 1.061l-1.47 1.47L9.53 15.47Zm5-.94-2 2a.748.748 0 0 1-1.06 0 .75.75 0 0 1 0-1.061l1.47-1.47-1.47-1.47a.75.75 0 1 1 1.061-1.061l2 2a.752.752 0 0 1-.001 1.062Z"/></svg>
